X: 123
M: C
L: 1/8
K: Em
e3 f (gf) (e^d) | e2 B2 B2 G2 |
e3 f g2 e2 | f3 ^d B2 zB | e3 f g2 (fe) |
f2 d2 d2 (ef) | g2 e2 (gf) (e^d) |
e3 f Hg3 G | A3 c (BA) (GF) | G2 E2 E3 :|

